X:1
T:Title
%%score ( 1 2 ) { 3 | 4 }
L:1/8
Q:1/4=83
M:6/8
K:Bb
V:1 treble nm="Grand Piano, Soprano"
V:2 treble 
V:3 bass nm="Choir Pad, Believe &amp; Keep on Believing"
V:4 bass 
V:1
 [DF]/[DF]<[DB][EB]/ [FB][GB][FA] | [EG][EG][DF] [B,D] [DF]2 | [DF][DB]>[DB] [DB][DB][Ec] | %3
w: By~James~McGranahan * * * * * *|||
 [Fd][=Ed][Ec] [Ec] [Fc]2 | [Fc][Fd]>[Ge] [Fd][Fd][Ec] | [DB][GB]>[Gc] [GB] [GB]2 | %6
w: |||
 [EA]/[EG]<[DF][DB]/ [DB][FA][Fc]- | [Fc]/[EF]/[EF][DB]- [DB]2- [DB]/ z/ | %8
w: ||
 F[Ec]>[Ec] [Ec][Ec][Fd] | [Ec][Ec][DB] [EG] [DF]2 | [DF][DB]>[EB] [FB][GB][Ac] | %11
w: |||
 [Bd][Bd][Bc] [Bc] [Ac]2 | F[Fd]>[Fd] [Fd][Fe]>[Fd] | [Ec][DB][DB] [DB]cB | %14
w: |||
 [EG][DF]>[DB] [DB][FA][Fc]- | [Fc]/[EF]/[EF][DB]- [DB]3- | [DB]3 z3 |] %17
w: |||
V:2
 x6 | x6 | x6 | x6 | x6 | x6 | x6 | x6 | x6 | x6 | x6 | x6 | x6 | z3 z E2 | x6 | x6 | x6 |] %17
V:3
 B,/B,<B,B,/ B,B,B, | B,B,B, F, B,2 | B,F,>F, F,F,B, | B,B,B, B, A,2 | A,B,>B, B,B,F, | %5
 F,E,>G, B, B,2 | B,/B,<B,B,/ B,[K:treble]CE- | E/A,/C[K:bass]B,- B,2- B,/ z/ | F,A,>A, A,A,A, | %9
 A,B,B, B, B,2 | B,B,>B, B,[K:treble]DD | D=EE E F2 | F,B,>B, B,A,>A, | A,B,B, B, G,2 | %14
 B,B,>B, B,[K:treble]CE- | E/A,/C[K:bass]B,- B,3- | B,3 z3 |] %17
V:4
 B,,/B,,<B,,C,/ D,E,E, | E,B,,B,, B,, B,,2 | B,,B,,>B,, B,,B,,B,, | B,,C,C, C, F,2 | %4
 F,B,,>B,, B,,B,,B,, | .B,,2 z/ E,/ E, E,2 | E,/E,<F,F,/ F,F,F,- | F,/F,/B,,B,,- B,,2- B,,/ z/ | %8
 z F,>F, F,F,F, | F,B,,B,, B,, B,,2 | B,,B,,>C, D,G,G, | G,C,C, C, F,2 | z B,,>B,, B,,F,>F, | %13
 F,G,G, G, E,2 | E,F,>F, F,F,F,- | F,/F,/B,,B,,- B,,3- | B,,3 z3 |] %17

